assets/media/img/icons/lips.svg

<?xml version="1.0" standalone="no"?><!-- Generator: Gravit.io --><svg xmlns="http://www.w3.org/2000/svg" xmlns:xlink="http://www.w3.org/1999/xlink" style="isolation:isolate" viewBox="0 0 18 18" width="18" height="18"><defs><clipPath id="_clipPath_LOn7L5zsVUWZzEUYtIrhGgfhIZL1fuZL"><rect width="18" height="18"/></clipPath></defs><g clip-path="url(#_clipPath_LOn7L5zsVUWZzEUYtIrhGgfhIZL1fuZL)"><path d=" M 6.598 12.059 C 4.707 11.427 2.995 10.114 1.532 8.172 L 1 7.466 L 3.552 6.553 C 6.837 5.379 7.226 5.311 8.212 5.747 C 8.972 6.082 9.035 6.082 9.795 5.747 C 10.781 5.311 11.171 5.379 14.452 6.559 L 17 7.475 L 16.471 8.177 C 14.414 10.904 11.609 12.513 8.932 12.5 C 8.367 12.497 7.316 12.299 6.598 12.059 Z  M 12.876 8.676 C 13.941 8.379 14.776 8.1 14.73 8.056 C 14.685 8.011 13.378 8.131 11.826 8.323 C 9.122 8.656 8.885 8.656 6.182 8.323 C 4.629 8.131 3.322 8.011 3.277 8.056 C 3.197 8.134 6.375 9.05 7.404 9.245 C 8.5 9.454 11.022 9.191 12.876 8.676 Z " fill="rgb(255,254,254)"/></g></svg>

<svg xmlns="http://www.w3.org/2000/svg" style="isolation:isolate" width="18" height="18"><defs><clipPath id="a"><path d="M0 0h18v18H0z"/></clipPath></defs><g clip-path="url(#a)"><path fill="#2A2D34" d="M6.6 12.06C4.7 11.43 3 10.1 1.53 8.17L1 7.47l2.55-.92c3.29-1.17 3.68-1.24 4.66-.8.76.33.82.33 1.58 0 1-.44 1.38-.37 4.66.8l2.55.92-.53.7c-2.06 2.73-4.86 4.34-7.54 4.33a9.2 9.2 0 0 1-2.33-.44zm6.28-3.38c1.06-.3 1.9-.58 1.85-.62-.04-.05-1.35.07-2.9.26-2.7.34-2.95.34-5.65 0-1.55-.19-2.86-.3-2.9-.26-.08.07 3.1.99 4.12 1.18 1.1.21 3.62-.05 5.48-.56z"/></g></svg>
